X:3
T:3. Morgiana
M:6/8
L:1/8
Q:3/8=120
Z:Peter Dunk, VMP, 2011
K:F
c | (cA)c {fg}a2 g | fed c2 d | (cA)c (fc)a | (ba)g (gf)d | (cA)c a2 g | fed c2 d | (cA)c  (fc)f |(ag)e f2 ||!
g | gag fed | ccc b2 c | (ac)c (fc)c | acc g3 | gag fed |dcc b2 c | (ac)c (fc)c | gfe dcB ||!
AFG A2 c | AFG A2 c | B2 d A2 c | G3- GcB | AFG A2 c | d2 f e2 g | f3- f2 |]!

